svgs/thin/square-arrow-down.svg

<svg xmlns="http://www.w3.org/2000/svg" viewBox="0 0 448 512"><!--! Font Awesome Pro 6.0.0-alpha3 by @fontawesome - https://fontawesome.com License - https://fontawesome.com/license (Commercial License) --><path d="M218.3 381.7c3.125 3.125 8.188 3.125 11.31 0l120-120C351.2 260.1 352 258.1 352 256s-.7813-4.094-2.344-5.656c-3.125-3.125-8.188-3.125-11.31 0L232 356.7V136c0-4.406-3.576-8-7.997-8S216 131.6 216 136v220.7L109.7 250.3c-3.125-3.125-8.188-3.125-11.31 0s-3.125 8.188 0 11.31L218.3 381.7zM64 480h320c35.35 0 64-28.65 64-64V96c0-35.35-28.65-64-64-64H64C28.65 32 0 60.65 0 96v320C0 451.3 28.65 480 64 480zM16 96c0-26.47 21.53-48 48-48h320c26.47 0 48 21.53 48 48v320c0 26.47-21.53 48-48 48H64c-26.47 0-48-21.53-48-48V96z"/></svg>

<svg xmlns="http://www.w3.org/2000/svg" viewBox="0 0 448 512"><!-- Font Awesome Pro 6.0.0-alpha2 by @fontawesome - https://fontawesome.com License - https://fontawesome.com/license (Commercial License) --><path d="M218.344 381.656C221.469 384.781 226.531 384.781 229.656 381.656L349.656 261.656C351.219 260.094 352 258.062 352 256S351.219 251.906 349.656 250.344C346.531 247.219 341.469 247.219 338.344 250.344L232 356.688V136C232 131.594 228.422 128 224 128S216 131.594 216 136V356.688L109.656 250.344C106.531 247.219 101.469 247.219 98.344 250.344S95.219 258.531 98.344 261.656L218.344 381.656ZM64 480H384C419.348 480 448 451.348 448 416V96C448 60.654 419.348 32 384 32H64C28.652 32 0 60.654 0 96V416C0 451.348 28.652 480 64 480ZM16 96C16 69.533 37.531 48 64 48H384C410.469 48 432 69.533 432 96V416C432 442.467 410.469 464 384 464H64C37.531 464 16 442.467 16 416V96Z"/></svg>
